packages/ui/assets/svg/partner_metis.svg

<svg class="partner-size" width="153" height="38" viewBox="0 0 153 38" fill="none" xmlns="http://www.w3.org/2000/svg">
<g id="partner_metis" clip-path="url(#clip0_205_103)">
<g id="g26888">
<path id="path19" d="M19.6705 0C8.80966 0 0 8.62465 0 19.2574C0 26.9166 4.5626 33.5332 11.1896 36.6355C11.4394 36.2364 11.6629 35.9275 11.8734 35.7086C13.0567 34.4729 14.0429 31.6666 14.3716 30.7141C14.3847 30.7012 14.3978 30.6883 14.3978 30.6754C14.4109 30.6111 14.4241 30.5339 14.4504 30.4695C14.4633 30.4309 14.4767 30.4051 14.4767 30.4051C14.7133 29.504 14.95 28.6158 15.2524 27.7534C15.5548 28.1009 16.9092 27.8177 17.1853 27.7662C18.0663 27.586 19.46 27.1226 20.0123 26.376C20.5251 25.668 19.7493 25.5908 19.1708 25.6809C17.9085 25.9126 16.6594 26.6206 15.5285 27.2127C15.5285 27.187 15.5154 27.1484 15.5023 27.1097C15.831 26.1958 16.1992 25.3076 16.6067 24.4322C18.4213 24.6639 20.4068 24.4966 21.7742 23.2093C21.9057 23.0806 21.748 22.8746 21.6033 22.9004C20.0386 23.0806 18.395 23.3381 16.8961 23.8787C17.1984 23.2866 17.5272 22.7073 17.8954 22.128C18.132 21.7418 18.3687 21.3943 18.6317 21.0467C20.6697 21.2785 22.7078 20.6477 24.3251 19.4248C24.4829 19.2961 24.3645 19.103 24.1936 19.0901C22.4843 19.0644 20.7618 19.4119 19.2497 20.21C19.9729 19.2832 20.7487 18.4078 21.5902 17.584C23.4441 17.9444 25.4953 17.4295 27.06 16.4255C27.2573 16.2967 27.0995 16.065 26.9154 16.065C25.4033 16.0522 23.8386 16.271 22.4054 16.8116C22.905 16.3482 25.1798 15.0867 25.7057 14.8035C26.7708 14.2114 27.7832 13.5677 28.6642 12.7439C28.822 12.6023 28.7168 12.3835 28.4801 12.4092C25.8635 12.6795 22.6026 15.9749 22.1161 16.4126C23.2074 15.0352 24.1279 13.4776 24.404 11.7398C24.4303 11.5467 24.2067 11.4824 24.0753 11.5982C22.55 13.0914 21.2615 15.1382 21.0116 17.2751C21.0116 17.3266 21.0245 17.378 21.0642 17.4038C20.341 18.1246 19.6704 18.897 19.0262 19.7209C19.6442 18.1504 19.8414 16.4512 19.6179 14.7649C19.6048 14.6362 19.4338 14.5332 19.3154 14.6362C18.5396 15.2669 18.3687 16.1551 18.2767 17.1206C18.1715 18.2405 18.1715 19.3604 18.2895 20.4803C18.2895 20.5318 18.3158 20.5962 18.3553 20.6219C18.3422 20.6348 18.3422 20.6605 18.3291 20.6734C18.3162 20.6992 18.2895 20.7249 18.2764 20.7635C18.237 20.7893 18.2238 20.815 18.2107 20.8665C17.7373 21.5745 17.2903 22.2954 16.8827 23.0291C16.9747 22.1538 16.9352 21.2527 16.8169 20.3902C16.7643 20.0555 16.6591 18.3435 16.028 18.4465C15.3442 18.5494 15.5941 20.0942 15.6072 20.4932C15.6467 21.7676 15.8439 23.0034 16.1727 24.2263C16.1858 24.2778 16.2121 24.3164 16.2647 24.3421C15.9096 25.1145 15.5809 25.8997 15.3179 26.6978C15.2128 25.874 14.8051 25.0244 14.437 24.355C14.2398 23.9946 13.6875 22.733 13.0827 22.8875C12.3989 23.0677 13.1089 24.4709 13.2536 24.7927C13.6612 25.7195 14.2792 26.7107 15.1076 27.3028C14.792 28.3326 14.5422 29.3753 14.3976 30.418C13.9768 30.3279 12.938 30.0318 11.8335 29.1822C10.5055 28.9505 9.79546 28.2554 9.26949 26.775C9.09857 26.2859 8.87508 25.7839 8.63842 25.3204C8.57267 25.1789 7.99407 25.269 8.03355 24.9085C7.98094 25.3719 7.69167 24.9343 7.41553 24.3421C7.21831 23.9044 7.11316 23.5054 7.07368 23.1321C7.03422 22.6043 6.81068 22.2825 6.31104 22.0894C5.29861 21.6775 4.86469 20.8794 4.7595 19.8753C4.73325 19.6694 4.7069 19.4377 4.69375 19.2317C4.62799 19.2317 4.56227 19.2446 4.49652 19.2446C4.49652 19.7981 4.02318 18.9742 4.65431 18.0345C4.81214 17.8028 4.89101 17.5325 4.99617 17.2751C4.94356 17.2364 4.8647 17.1721 4.81215 17.1335C4.49653 17.2879 4.50968 17.0047 4.90416 16.7473C4.41762 15.0867 5.50901 14.0698 6.77129 13.0657C6.52143 12.9627 6.37682 12.9112 6.12698 12.8083C6.49513 12.7181 6.74495 12.6538 6.99478 12.6152C7.04739 12.6023 7.12631 12.6023 7.17887 12.6152C7.21832 12.3448 7.36298 12.0488 7.67852 11.6883C7.92833 11.3923 8.25711 11.3279 8.6121 11.3537C8.66468 10.9675 8.78305 10.6199 9.32217 10.6199C10.2426 10.607 10.7159 10.0278 11.2681 9.46138C11.7415 8.95935 12.2806 8.47018 12.8066 8.01964C13.0827 7.78793 13.464 7.68496 13.7138 7.44038C14.9629 6.23036 16.6197 5.76693 18.2501 5.50948C19.3415 5.32927 20.5643 5.66395 21.7083 5.86991C21.8792 5.89564 22.037 5.93428 22.1816 5.99864C24.7456 6.14024 28.046 6.56503 28.9401 7.81368C30.4653 9.9634 30.2418 10.3625 30.2418 10.3625L32.2141 13.6579C32.2141 13.6579 31.4778 15.3442 31.7802 15.9749C32.0826 16.5799 33.3186 17.7642 33.3186 17.7642C33.3186 17.7642 35.1463 19.0772 35.1463 19.1416C35.1463 19.2059 35.212 19.5278 34.7781 19.9011C34.3311 20.2615 33.4764 20.7249 33.4764 20.7249C33.4764 20.7249 33.5158 21.0081 33.621 21.2141C33.7394 21.4458 34.0155 21.7676 33.9235 22.0637C33.8183 22.3597 33.2003 22.5915 33.3712 22.9133C33.5421 23.248 33.9761 23.3509 33.8446 23.647C33.7131 23.9431 33.0951 24.4322 33.1477 24.6639C33.2003 24.8957 33.6473 26.9295 32.5165 27.2642C31.3594 27.5989 27.5726 27.6761 27.5726 27.6761C27.5726 27.6761 26.7968 28.2039 26.547 29.6328C26.2972 31.0745 24.7719 34.357 24.7719 34.357C24.7719 34.357 23.6806 36.4038 23.8515 36.8672C24.0224 37.3306 24.338 37.5752 24.7193 37.897C24.7456 37.9227 24.7851 37.9485 24.8377 38C33.2529 35.8116 39.4591 28.3069 39.4591 19.399C39.3408 8.62465 30.5311 0 19.6702 0H19.6705Z" fill="#00DACC"></path>
<g id="g17">
<path class="fill" d="M53.6288 11.3161H57.2605L61.2577 17.6395L65.2794 11.3161H68.9111V26.3013H65.5719V16.518L61.2577 22.9368H61.1846L56.9436 16.6134V26.3251H53.6288V11.3161Z" fill="black"></path>
<path class="fill" d="M80.9029 11.3161H92.4316V14.2511H84.242V17.2815H91.4566V20.2404H84.242V23.3663H92.5535V26.3013H80.9029V11.3161Z" fill="black"></path>
<path class="fill" d="M107.397 14.3943H102.742V11.3638H115.392V14.3943H110.736V26.3251H107.373V14.3943H107.397Z" fill="black"></path>
<path class="fill" d="M126.433 11.3161H129.796V26.3013H126.433V11.3161Z" fill="black"></path>
<path class="fill" d="M140.886 24.106L142.861 21.7676C144.25 22.8891 145.688 23.6049 147.418 23.6049C148.808 23.6049 149.636 23.08 149.636 22.1971V22.1494C149.636 21.3142 149.1 20.8608 146.565 20.2404C143.47 19.4768 141.496 18.6178 141.496 15.659V15.6112C141.496 12.891 143.714 11.0775 146.833 11.0775C149.076 11.0775 150.953 11.7456 152.513 12.9865L150.782 15.4681C149.393 14.5613 148.101 14.0125 146.809 14.0125C145.517 14.0125 144.835 14.5613 144.835 15.3249V15.3726C144.835 16.3748 145.493 16.6612 148.15 17.3293C151.245 18.1406 153 19.2144 153 21.8153V21.863C153 24.8457 150.685 26.4922 147.394 26.4922C145.03 26.5161 142.714 25.7525 140.886 24.106Z" fill="black"></path>
</g>
</g>
</g>
<defs>
<clipPath id="clip0_205_103">
<rect width="153" height="38" fill="white"></rect>
</clipPath>
</defs>
</svg>

<svg class="partner-size" width="153" height="38" viewBox="0 0 153 38" fill="none" xmlns="http://www.w3.org/2000/svg"><g clip-path="url(#clip0_205_103)"><path d="M19.67 0C8.81 0 0 8.625 0 19.257c0 7.66 4.563 14.276 11.19 17.378.25-.399.473-.707.683-.926 1.184-1.236 2.17-4.042 2.499-4.995.013-.013.026-.026.026-.039.013-.064.026-.141.052-.206.013-.038.027-.064.027-.064.236-.901.473-1.79.775-2.652.303.348 1.657.065 1.933.013.881-.18 2.275-.643 2.827-1.39.513-.708-.263-.785-.841-.695-1.262.232-2.512.94-3.643 1.532 0-.026-.013-.065-.026-.103.329-.914.697-1.802 1.105-2.678 1.814.232 3.8.065 5.167-1.223.132-.128-.026-.334-.17-.309-1.565.18-3.209.438-4.708.979.302-.592.631-1.172 1-1.751.236-.386.473-.734.736-1.081 2.038.232 4.076-.4 5.693-1.622.158-.129.04-.322-.131-.335-1.71-.026-3.432.322-4.944 1.12a26.327 26.327 0 0 1 2.34-2.626c1.854.36 3.905-.154 5.47-1.159.197-.128.04-.36-.145-.36-1.512-.013-3.076.206-4.51.747.5-.464 2.775-1.725 3.3-2.009 1.066-.592 2.078-1.235 2.96-2.06.157-.14.052-.36-.185-.334-2.617.27-5.877 3.566-6.364 4.004 1.091-1.378 2.012-2.935 2.288-4.673.026-.193-.197-.258-.329-.142-1.525 1.493-2.813 3.54-3.063 5.677 0 .052.012.103.052.129a24.936 24.936 0 0 0-2.038 2.317c.618-1.57.815-3.27.592-4.956-.013-.129-.184-.232-.303-.129-.775.63-.946 1.52-1.038 2.485a16.9 16.9 0 0 0 .012 3.36c0 .05.027.115.066.14-.013.014-.013.04-.026.052-.013.026-.04.052-.053.09-.039.026-.052.052-.065.103-.474.709-.92 1.43-1.328 2.163a11.07 11.07 0 0 0-.066-2.639c-.053-.335-.158-2.047-.789-1.944-.684.103-.434 1.648-.42 2.047.039 1.275.236 2.51.565 3.733.013.052.04.09.092.116a22.625 22.625 0 0 0-.947 2.356c-.105-.824-.513-1.674-.881-2.343-.197-.36-.75-1.622-1.354-1.468-.684.18.026 1.584.17 1.906.408.927 1.026 1.918 1.855 2.51a20.096 20.096 0 0 0-.71 3.115c-.421-.09-1.46-.386-2.564-1.236-1.329-.231-2.039-.927-2.565-2.407a11.9 11.9 0 0 0-.63-1.455c-.066-.141-.645-.051-.605-.412-.053.464-.342.026-.618-.566a3.934 3.934 0 0 1-.342-1.21c-.04-.528-.263-.85-.763-1.043-1.012-.412-1.446-1.21-1.551-2.214a10.7 10.7 0 0 1-.066-.643c-.066 0-.132.013-.197.013 0 .553-.474-.27.157-1.21.158-.232.237-.503.342-.76-.052-.039-.131-.103-.184-.141-.315.154-.302-.13.092-.387-.486-1.66.605-2.677 1.867-3.681-.25-.103-.394-.155-.644-.258.368-.09.618-.154.868-.193a.443.443 0 0 1 .184 0c.04-.27.184-.566.5-.927.25-.296.578-.36.933-.334.053-.386.171-.734.71-.734.92-.013 1.394-.592 1.946-1.159a20.165 20.165 0 0 1 1.539-1.441c.276-.232.657-.335.907-.58 1.249-1.21 2.906-1.673 4.536-1.93 1.091-.18 2.314.154 3.458.36.171.026.329.064.474.129 2.564.141 5.864.566 6.758 1.815 1.525 2.15 1.302 2.549 1.302 2.549l1.972 3.295s-.736 1.686-.434 2.317c.303.605 1.539 1.79 1.539 1.79s1.827 1.312 1.827 1.377c0 .064.066.386-.368.76-.447.36-1.302.823-1.302.823s.04.283.145.49c.118.23.395.553.302.849-.105.296-.723.527-.552.85.171.334.605.437.474.733-.132.296-.75.785-.697 1.017.052.232.5 2.265-.632 2.6-1.157.335-4.943.412-4.943.412s-.776.528-1.026 1.957c-.25 1.442-1.775 4.724-1.775 4.724s-1.091 2.047-.92 2.51c.17.464.486.708.867 1.03.027.026.066.052.119.103 8.415-2.188 14.621-9.693 14.621-18.601C39.341 8.625 30.531 0 19.67 0Z" fill="#00DACC"/><path class="fill" d="M53.629 11.316h3.632l3.997 6.324 4.021-6.324h3.632v14.985h-3.34v-9.783l-4.313 6.419h-.073l-4.241-6.324v9.712h-3.315V11.316ZM80.903 11.316h11.529v2.935h-8.19v3.03h7.215v2.96h-7.215v3.125h8.311v2.935h-11.65V11.316ZM107.397 14.394h-4.655v-3.03h12.65v3.03h-4.656v11.931h-3.363v-11.93h.024ZM126.433 11.316h3.363v14.985h-3.363V11.316ZM140.886 24.106l1.975-2.338c1.389 1.121 2.827 1.837 4.557 1.837 1.39 0 2.218-.525 2.218-1.408v-.048c0-.835-.536-1.288-3.071-1.909-3.095-.763-5.069-1.622-5.069-4.581v-.048c0-2.72 2.218-4.534 5.337-4.534 2.243 0 4.12.669 5.68 1.91l-1.731 2.481c-1.389-.907-2.681-1.456-3.973-1.456-1.292 0-1.974.55-1.974 1.313v.048c0 1.002.658 1.288 3.315 1.956 3.095.812 4.85 1.885 4.85 4.486v.048c0 2.983-2.315 4.63-5.606 4.63-2.364.023-4.68-.74-6.508-2.387Z" fill="#000"/></g><defs><clipPath id="clip0_205_103"><path fill="#fff" d="M0 0h153v38H0z"/></clipPath></defs></svg>
